X:1
T:The Health
C:John Playford, The English Dancing Master, 1651
N:arr. Dave Lankford. Matches Pile 46
P:(AA BB)x3, or AA BB AA BB AA BA, or Ax12
M:C
L:1/8
K:G major
P:A
 |:Bc | "G"d2d2 d3c | B2G4cd | "C"e2d2 "G"d3c | d6AB | "C"c2c2 B2A2 | "G"B4 A2G2 | "Am"A2B2 "D"A3G | "G"G6 ::
P:B
 GA |"G"B6c2 | B6z2 | "C"c2d2 e2f2 | "G"g6z2 | "C"c3d e3e | "G"B3c d3d | "Am"A2B2 "D"c2d2 | "G"d6 :|

